assets/dist/images/integrations/zapier/hero.svg

<svg xmlns="http://www.w3.org/2000/svg" width="355" height="353" viewBox="0 0 355 353">
  <g fill="none" fill-rule="evenodd">
    <g transform="translate(195 193)">
      <circle cx="80" cy="80" r="80" fill="#0AA6D2" opacity=".2"/>
      <circle cx="80" cy="80" r="60" fill="#0AA6D2"/>
      <path fill="#FFF" d="M100.592071,60.0032439 C100.524646,60.001038 100.456844,60 100.389041,60 L100.389041,60 L59.5525734,60 C59.5131477,60 59.4738476,60.0002595 59.4345475,60.001038 L59.4345475,60.001038 C59.3958751,60.0002595 59.3573284,60 59.3185305,60 L59.3185305,60 C55.8027391,60 53,62.8963806 53,66.5295075 L53,66.5295075 C53,67.3444957 53.1509225,68.1263965 53.4266512,68.8465341 L53.4266512,68.8465341 C53.5556008,69.2522765 53.7249805,69.650623 53.936046,70.0362534 L53.936046,70.0362534 L74.3542801,106.553849 C74.6470848,107.07702 74.9982747,107.54219 75.3939127,107.946116 L75.3939127,107.946116 C76.5437865,109.206292 78.1887415,110 80.0291926,110 L80.0291926,110 C81.5666686,110 82.9819752,109.407281 84.0713294,108.433214 L84.0713294,108.433214 C84.6885799,107.932102 85.226979,107.302144 85.6457199,106.553849 L85.6457199,106.553849 L106.063954,70.0362534 C106.271002,69.6581487 106.437745,69.2678471 106.565815,68.870409 L106.565815,68.870409 C106.845813,68.1435241 107,67.3535785 107,66.5295075 L107,66.5295075 C107,62.8963806 104.197261,60 100.798491,60 L100.798491,60 C100.729308,60 100.660501,60.001038 100.592071,60.0032439 L100.592071,60.0032439 Z M82.0184317,94.3409638 L98.1657595,65.3807906 C98.2237679,65.2989155 98.2616869,65.2365036 98.2827809,65.1993938 L98.2827809,65.1993938 C98.7605348,64.2519262 99.6884195,63.6274177 100.798491,63.6274177 L100.798491,63.6274177 C102.259627,63.6274177 103.489733,64.9003096 103.489733,66.5295075 L103.489733,66.5295075 C103.489733,67.0862842 103.311815,67.6331995 103.021647,68.1014836 L103.021647,68.1014836 C102.989379,68.126656 102.968285,68.1666204 102.963262,68.2224148 L102.963262,68.2224148 L85.1776341,100.024082 L82.0184317,94.3409638 Z M59.5525734,63.6274177 L95.1234529,63.6274177 L91.9642504,69.3107958 L59.5525734,69.3107958 C59.4972017,69.3107958 59.4430855,69.3089793 59.3770412,69.3107958 L59.3770412,69.3107958 C59.3366111,69.3089793 59.2834994,69.3107958 59.2016346,69.3107958 L59.2016346,69.3107958 C57.6824903,69.3107958 56.4518816,68.0384229 56.4518816,66.5295075 L56.4518816,66.5295075 C56.4518816,64.8997906 57.6824903,63.6274177 59.2016346,63.6274177 L59.2016346,63.6274177 C59.2834994,63.6274177 59.3364855,63.6291045 59.3770412,63.6274177 L59.3770412,63.6274177 C59.3990141,63.6280664 59.4197314,63.6281962 59.4395698,63.6281962 L59.4395698,63.6281962 C59.4792466,63.6281962 59.5155333,63.6274177 59.5525734,63.6274177 L59.5525734,63.6274177 Z M70.0578853,72.9382135 L89.9422403,72.9382135 L79.9999372,90.7197743 L70.0578853,72.9382135 Z M77.4550974,104.860942 C77.4589897,104.818253 77.4394024,104.784776 77.3964611,104.740011 L77.3964611,104.740011 L59.6694693,72.9382135 L65.9881253,72.9382135 L82.1939638,101.898387 C82.2154345,101.977667 82.2505912,102.047345 82.3108597,102.140249 L82.3108597,102.140249 C82.5592164,102.566233 82.7204348,103.102768 82.7204348,103.712095 L82.7204348,103.712095 C82.7204348,105.221141 81.4909562,106.493384 80.0291926,106.493384 L80.0291926,106.493384 C78.8751753,106.493384 77.9152729,105.815546 77.4550974,104.860942 L77.4550974,104.860942 Z"/>
    </g>
    <circle cx="110" cy="110" r="110" fill="#FF4A00" opacity=".2"/>
    <circle cx="110" cy="110" r="79" fill="#FF4A00"/>
    <path fill="#FFF" d="M118.999717,110.015837 C118.998586,112.691092 118.508782,115.250966 117.617408,117.616277 C115.253229,118.507651 112.691092,118.997455 110.014705,119.000848 L109.984163,119.000848 C107.310039,118.997455 104.747903,118.508782 102.383723,117.617408 C101.492349,115.253229 101.001414,112.691092 101.000283,110.015837 L101.000283,109.984163 C101.001414,107.310039 101.491218,104.747903 102.381461,102.384855 C104.74564,101.492349 107.308908,101.001414 109.984163,101.000283 L110.014705,101.000283 C112.691092,101.001414 115.253229,101.492349 117.617408,102.384855 C118.508782,104.747903 118.998586,107.310039 118.999717,109.984163 L118.999717,110.015837 Z M145.500016,104.000189 L124.48597,104.000189 L139.344101,89.1409269 C138.176716,87.500707 136.874721,85.9622938 135.455082,84.5426551 L135.455082,84.541524 C134.035444,83.1230165 132.497031,81.8232836 130.857942,80.6558995 L115.99868,95.515161 L115.99868,74.5011155 C114.054171,74.1742027 112.056496,74.0011312 110.018099,74 L109.98077,74 C107.942372,74.0011312 105.945829,74.1742027 104.000189,74.5011155 L104.000189,95.515161 L89.1409269,80.6558995 C87.500707,81.8232836 85.963425,83.1241477 84.5460487,84.5437863 L84.5381304,84.5494423 C83.1207541,85.9668185 81.8221524,87.5029694 80.6547683,89.1409269 L95.515161,104.000189 L74.5011155,104.000189 C74.5011155,104.000189 74,107.946897 74,109.987557 L74,110.012443 C74,112.053103 74.1730715,114.05304 74.5011155,115.999811 L95.515161,115.999811 L80.6547683,130.859073 C82.9917989,134.138382 85.8616182,137.009332 89.1409269,139.345232 L104.000189,124.484839 L104.000189,145.500016 C105.944698,145.825797 107.938979,145.997738 109.973983,146 L110.024886,146 C112.061021,145.997738 114.057565,145.825797 115.99868,145.500016 L115.99868,124.484839 L130.859073,139.345232 C132.498162,138.177848 134.035444,136.876984 135.455082,135.458476 L135.458476,135.455082 C136.875852,134.035444 138.177848,132.497031 139.344101,130.859073 L124.483708,115.999811 L145.500016,115.999811 C145.826929,114.056434 145.997738,112.062152 146,110.026017 L146,109.973983 C145.997738,107.937848 145.826929,105.943566 145.500016,104.000189 L145.500016,104.000189 Z"/>
  </g>
</svg>

<svg xmlns="http://www.w3.org/2000/svg" width="355" height="353" viewBox="0 0 355 353"><g fill="none" fill-rule="evenodd"><g transform="translate(195 193)"><circle cx="80" cy="80" r="80" fill="#0AA6D2" opacity=".2"/><circle cx="80" cy="80" r="60" fill="#0AA6D2"/><path fill="#FFF" d="M100.592 60.003a6.215 6.215 0 00-.203-.003H59.553l-.118.001-.116-.001C55.803 60 53 62.896 53 66.53c0 .814.15 1.596.427 2.317.129.405.298.804.509 1.19l20.418 36.517c.293.523.644.988 1.04 1.392A6.25 6.25 0 0080.029 110c1.538 0 2.953-.593 4.042-1.567a6.5 6.5 0 001.575-1.88l20.418-36.517a6.69 6.69 0 00.502-1.166c.28-.726.434-1.516.434-2.34 0-3.634-2.803-6.53-6.202-6.53-.069 0-.137.001-.206.003zM82.018 94.341l16.148-28.96a2.21 2.21 0 00.117-.182c.478-.947 1.405-1.572 2.515-1.572 1.462 0 2.692 1.273 2.692 2.903 0 .556-.178 1.103-.468 1.571a.165.165 0 00-.059.121l-17.785 31.802-3.16-5.683zM59.553 63.627h35.57l-3.159 5.684H59.553c-.056 0-.11-.002-.176 0-.04-.002-.094 0-.175 0-1.52 0-2.75-1.273-2.75-2.781 0-1.63 1.23-2.903 2.75-2.903.081 0 .134.002.175 0l.063.001h.113zm10.505 9.311h19.884L80 90.72l-9.942-17.782zm7.397 31.923c.004-.043-.016-.076-.059-.121L59.67 72.938h6.32l16.205 28.96a.83.83 0 00.117.242c.248.426.41.963.41 1.572 0 1.51-1.23 2.781-2.692 2.781a2.848 2.848 0 01-2.574-1.632z"/></g><circle cx="110" cy="110" r="110" fill="#FF4A00" opacity=".2"/><circle cx="110" cy="110" r="79" fill="#FF4A00"/><path fill="#FFF" d="M119 110.016a21.53 21.53 0 01-1.383 7.6 21.585 21.585 0 01-7.602 1.385h-.03a21.58 21.58 0 01-7.601-1.384 21.532 21.532 0 01-1.384-7.601v-.032a21.554 21.554 0 011.381-7.6 21.513 21.513 0 017.603-1.384h.03a21.49 21.49 0 017.603 1.385 21.519 21.519 0 011.383 7.6v.03zM145.5 104h-21.014l14.858-14.86a36.146 36.146 0 00-3.889-4.597v-.001a36.281 36.281 0 00-4.597-3.886l-14.86 14.86V74.5a36.17 36.17 0 00-5.98-.501h-.037a36.18 36.18 0 00-5.98.501v21.014l-14.86-14.86a35.95 35.95 0 00-4.595 3.889l-.008.005a36.226 36.226 0 00-3.883 4.592L95.515 104H74.501S74 107.946 74 109.987v.024c0 2.041.173 4.041.501 5.988h21.014l-14.86 14.86a36.256 36.256 0 008.486 8.485l14.86-14.86V145.5c1.944.326 3.938.498 5.973.5h.05a36.324 36.324 0 005.975-.5v-21.015l14.86 14.86a36.28 36.28 0 004.596-3.887l.003-.003a36.35 36.35 0 003.886-4.596L124.484 116H145.5c.327-1.943.498-3.937.5-5.973v-.052a36.221 36.221 0 00-.5-5.974z"/></g></svg>
